X: 41483
T: Tyrellstown House
R: jig
M: 6/8
K: Dmixolydian
|:dge ~f2d|cAF DFF|DGG DAA|BAG ABc|
dge ~f2d|cAF DFF|DGG ~A2G|1 FDE D2A:|2 FDE D2G||
K: Ador
|:EAG ~A2B|cAB cAG|EAG ~A2E|G3 GFG|
EAG ~A2B|cAB cde|~g3 ege|1 dBG A2G:|2 dBG ABc||

